X: 426
T: Manman pin qinqin xin haolan
L: 1/8
M: 2/4
K: Db
B AB2 [I:setbarnb 1]| 
A f e d | 
F F/ A/ E D | 
B,4 | 
B AB2 | 
A f e d | 
F> A E D | 
E4 |]

@@@ Tune index: 9300
